;FLAVOR:Marlin
;TIME:3664
;Filament used: 3.32594m
;Layer height: 0.2
;MINX:68
;MINY:64.385
;MINZ:0.2
;MAXX:142.658
;MAXY:141.5
;MAXZ:20
;Generated with Creality Slicer 4.8.2-191
M140 S60
M105
M190 S60
M104 S200
M105
M109 S200
M82 ;absolute extrusion mode

G28 ;Home

G92 E0 ;Reset Extruder
G1 Z2.0 F3000 ;Move Z Axis up
G1 X10.1 Y20 Z0.28 F5000.0 ;Move to start position
G1 X10.1 Y200.0 Z0.28 F1500.0 E15 ;Draw the first line
G1 X10.4 Y200.0 Z0.28 F5000.0 ;Move to side a little
G1 X10.4 Y20 Z0.28 F1500.0 E30 ;Draw the second line
G92 E0 ;Reset Extruder
G1 Z2.0 F3000 ;Move Z Axis up

G92 E0
G92 E0
G1 F3600 E-5
;LAYER_COUNT:100
;LAYER:0
M107
G0 F6000 X73.881 Y67.626 Z0.2
;TYPE:SKIRT
G1 F3600 E0
G1 F1200 X74.571 Y66.99 E0.03121
G1 X75.313 Y66.416 E0.06241
G1 X76.101 Y65.908 E0.0936
G1 X76.929 Y65.468 E0.12478
G1 X77.792 Y65.1 E0.15599
G1 X78.683 Y64.807 E0.18718
G1 X79.595 Y64.591 E0.21835
G1 X80.523 Y64.454 E0.24955
G1 X81.359 Y64.398 E0.27742
G1 X81.678 Y64.389 E0.28804
G1 X81.988 Y64.385 E0.29835
G1 X130.951 Y64.385 E1.92686
G1 X131.807 Y64.396 E1.95534
G1 X132.743 Y64.45 E1.98652
G1 X133.671 Y64.582 E2.0177
G1 X134.585 Y64.794 E2.0489
G1 X135.477 Y65.083 E2.08009
G1 X136.342 Y65.446 E2.11129
G1 X137.172 Y65.882 E2.14247
G1 X137.963 Y66.387 E2.17369
G1 X138.707 Y66.958 E2.20488
G1 X139.4 Y67.59 E2.23607
G1 X140.037 Y68.278 E2.26726
G1 X140.612 Y69.019 E2.29846
G1 X141.123 Y69.805 E2.32964
G1 X141.565 Y70.633 E2.36085
G1 X141.934 Y71.495 E2.39204
G1 X142.229 Y72.385 E2.42323
G1 X142.447 Y73.297 E2.45441
G1 X142.587 Y74.225 E2.48563
G1 X142.645 Y75.086 E2.51433
G1 X142.654 Y75.406 E2.52498
G1 X142.658 Y75.715 E2.53526
G1 X142.657 Y99.835 E3.33749
G1 X142.647 Y100.536 E3.36081
G1 X142.594 Y101.472 E3.39199
G1 X142.403 Y102.685 E3.43283
G1 X142.175 Y103.747 E3.46896
G1 X142.002 Y104.498 E3.49459
G1 X141.502 Y106.987 E3.57903
G1 X141.081 Y109.437 E3.66171
G1 X140.723 Y111.954 E3.74627
G1 X140.441 Y114.424 E3.82896
G1 X140.225 Y116.957 E3.91351
G1 X140.081 Y119.474 E3.99736
G1 X140.009 Y121.979 E4.08071
G1 X140 Y123.34 E4.12598
G1 X139.999 Y129.93 E4.34517
G1 X139.988 Y130.657 E4.36935
G1 X139.934 Y131.594 E4.40057
G1 X139.8 Y132.522 E4.43175
G1 X139.588 Y133.436 E4.46296
G1 X139.298 Y134.328 E4.49415
G1 X138.934 Y135.192 E4.52534
G1 X138.497 Y136.022 E4.55654
G1 X137.992 Y136.812 E4.58772
G1 X137.42 Y137.556 E4.61893
G1 X136.788 Y138.248 E4.6501
G1 X136.099 Y138.884 E4.68129
G1 X135.358 Y139.46 E4.71251
G1 X134.571 Y139.969 E4.74368
G1 X133.743 Y140.411 E4.7749
G1 X132.881 Y140.779 E4.80607
G1 X131.99 Y141.074 E4.83729
G1 X131.078 Y141.291 E4.86847
G1 X130.151 Y141.43 E4.89965
G1 X129.299 Y141.487 E4.92805
G1 X128.98 Y141.496 E4.93866
G1 X128.67 Y141.5 E4.94897
G1 X79.565 Y141.499 E6.58221
G1 X78.867 Y141.49 E6.60543
G1 X77.931 Y141.438 E6.63661
G1 X77.002 Y141.306 E6.66782
G1 X76.088 Y141.096 E6.69901
G1 X75.195 Y140.809 E6.73021
G1 X74.33 Y140.446 E6.76141
G1 X73.499 Y140.012 E6.79259
G1 X72.708 Y139.508 E6.82378
G1 X71.963 Y138.938 E6.85498
G1 X71.269 Y138.307 E6.88618
G1 X70.632 Y137.62 E6.91734
G1 X70.055 Y136.88 E6.94855
G1 X69.543 Y136.094 E6.97975
G1 X69.1 Y135.267 E7.01096
G1 X68.729 Y134.406 E7.04214
G1 X68.433 Y133.516 E7.07333
G1 X68.214 Y132.604 E7.10453
G1 X68.073 Y131.677 E7.13572
G1 X68.013 Y130.788 E7.16535
G1 X68.004 Y130.455 E7.17643
G1 X68 Y130.158 E7.18631
G1 X68.001 Y106.036 E7.98861
G1 X68.012 Y105.33 E8.0121
G1 X68.067 Y104.393 E8.04331
G1 X68.256 Y103.194 E8.08369
G1 X68.483 Y102.138 E8.11961
G1 X68.656 Y101.387 E8.14524
G1 X69.155 Y98.904 E8.22948
G1 X69.578 Y96.443 E8.31253
G1 X69.935 Y93.931 E8.39692
G1 X70.217 Y91.461 E8.47961
G1 X70.433 Y88.928 E8.56416
G1 X70.577 Y86.411 E8.64801
G1 X70.649 Y83.906 E8.73136
G1 X70.658 Y82.544 E8.77667
G1 X70.658 Y76.058 E8.99239
G1 X70.671 Y75.212 E9.02053
G1 X70.726 Y74.276 E9.05172
G1 X70.861 Y73.347 E9.08294
G1 X71.075 Y72.434 E9.11413
G1 X71.365 Y71.543 E9.1453
G1 X71.731 Y70.679 E9.1765
G1 X72.169 Y69.849 E9.20772
G1 X72.675 Y69.06 E9.23889
G1 X73.248 Y68.317 E9.2701
G1 X73.881 Y67.626 E9.30127
G0 F6000 X74.272 Y67.801
G1 F1200 X74.959 Y67.188 E9.33189
G1 X75.697 Y66.637 E9.36253
G1 X76.479 Y66.151 E9.39315
G1 X77.301 Y65.736 E9.42378
G1 X78.155 Y65.393 E9.45438
G1 X79.036 Y65.126 E9.485
G1 X79.937 Y64.936 E9.51563
G1 X80.851 Y64.826 E9.54625
G1 X81.37 Y64.798 E9.56354
G1 X81.689 Y64.789 E9.57415
G1 X81.988 Y64.785 E9.5841
G1 X130.951 Y64.785 E11.21261
G1 X131.801 Y64.796 E11.24089
G1 X132.72 Y64.849 E11.2715
G1 X133.631 Y64.982 E11.30212
G1 X134.527 Y65.193 E11.33274
G1 X135.401 Y65.481 E11.36335
G1 X136.248 Y65.844 E11.394
G1 X137.059 Y66.279 E11.42461
G1 X137.829 Y66.783 E11.45521
G1 X138.553 Y67.352 E11.48584
G1 X139.225 Y67.982 E11.51648
G1 X139.84 Y68.667 E11.5471
G1 X140.393 Y69.403 E11.57772
G1 X140.88 Y70.184 E11.60833
G1 X141.297 Y71.005 E11.63895
G1 X141.642 Y71.859 E11.66959
G1 X141.911 Y72.739 E11.7002
G1 X142.103 Y73.64 E11.73084
G1 X142.216 Y74.553 E11.76143
G1 X142.245 Y75.097 E11.77955
G1 X142.254 Y75.417 E11.7902
G1 X142.258 Y75.715 E11.80011
G1 X142.257 Y99.829 E12.60215
G1 X142.247 Y100.53 E12.62547
G1 X142.194 Y101.449 E12.65608
G1 X142.012 Y102.602 E12.69491
G1 X141.785 Y103.657 E12.7308
G1 X141.606 Y104.435 E12.75735
G1 X141.115 Y106.877 E12.8402
G1 X140.686 Y109.379 E12.92463
G1 X140.328 Y111.889 E13.00896
G1 X140.04 Y114.416 E13.09355
G1 X139.828 Y116.901 E13.1765
G1 X139.683 Y119.439 E13.26105
G1 X139.609 Y122.012 E13.34667
G1 X139.6 Y123.337 E13.39074
G1 X139.599 Y129.924 E13.60982
G1 X139.588 Y130.651 E13.634
G1 X139.534 Y131.57 E13.66462
G1 X139.4 Y132.481 E13.69525
G1 X139.188 Y133.377 E13.72587
G1 X138.9 Y134.251 E13.75648
G1 X138.536 Y135.097 E13.78711
G1 X138.1 Y135.908 E13.81774
G1 X137.596 Y136.678 E13.84835
G1 X137.026 Y137.402 E13.87899
G1 X136.396 Y138.073 E13.90961
G1 X135.711 Y138.687 E13.9402
G1 X134.974 Y139.24 E13.97085
G1 X134.192 Y139.726 E14.00147
G1 X133.371 Y140.143 E14.0321
G1 X132.517 Y140.487 E14.06272
G1 X131.637 Y140.755 E14.09332
G1 X130.736 Y140.946 E14.12395
G1 X129.822 Y141.058 E14.15458
G1 X129.288 Y141.087 E14.17236
G1 X128.969 Y141.096 E14.18298
G1 X128.67 Y141.1 E14.19292
G1 X79.57 Y141.099 E15.826
G1 X78.872 Y141.09 E15.84921
G1 X77.953 Y141.038 E15.87983
G1 X77.042 Y140.907 E15.91044
G1 X76.146 Y140.697 E15.94105
G1 X75.271 Y140.41 E15.97168
G1 X74.424 Y140.048 E16.00231
G1 X73.612 Y139.614 E16.03294
G1 X72.841 Y139.112 E16.06354
G1 X72.116 Y138.544 E16.09417
G1 X71.443 Y137.915 E16.12481
G1 X70.828 Y137.231 E16.1554
G1 X70.274 Y136.496 E16.18601
G1 X69.786 Y135.715 E16.21664
G1 X69.367 Y134.895 E16.24727
G1 X69.021 Y134.042 E16.27789
G1 X68.751 Y133.162 E16.3085
G1 X68.558 Y132.261 E16.33915
G1 X68.444 Y131.348 E16.36975
G1 X68.413 Y130.777 E16.38877
G1 X68.404 Y130.444 E16.39985
G1 X68.4 Y130.158 E16.40937
G1 X68.401 Y106.042 E17.21147
G1 X68.412 Y105.336 E17.23495
G1 X68.467 Y104.417 E17.26557
G1 X68.647 Y103.278 E17.30393
G1 X68.873 Y102.228 E17.33965
G1 X69.052 Y101.449 E17.36623
G1 X69.542 Y99.013 E17.44888
G1 X69.974 Y96.496 E17.53382
G1 X70.33 Y94.001 E17.61764
G1 X70.618 Y91.469 E17.7024
G1 X70.83 Y88.984 E17.78535
G1 X70.975 Y86.446 E17.8699
G1 X71.049 Y83.874 E17.95548
G1 X71.058 Y82.547 E17.99962
G1 X71.059 Y75.882 E18.2213
G1 X71.07 Y75.218 E18.24339
G1 X71.126 Y74.299 E18.27401
G1 X71.26 Y73.389 E18.3046
G1 X71.474 Y72.493 E18.33524
G1 X71.764 Y71.619 E18.36587
G1 X72.129 Y70.774 E18.39649
G1 X72.566 Y69.964 E18.4271
G1 X73.071 Y69.194 E18.45772
G1 X73.642 Y68.472 E18.48834
G1 X74.272 Y67.801 E18.51895
G0 F6000 X74.663 Y67.98
G1 F1200 X75.347 Y67.39 E18.549
G1 X76.079 Y66.862 E18.57902
G1 X76.856 Y66.401 E18.60906
G1 X77.67 Y66.01 E18.6391
G1 X78.516 Y65.694 E18.66914
G1 X79.386 Y65.453 E18.69916
G1 X80.275 Y65.29 E18.72922
G1 X81.381 Y65.198 E18.76614
G1 X81.7 Y65.189 E18.77675
G1 X81.988 Y65.185 E18.78633
G1 X130.951 Y65.185 E20.41485
G1 X131.795 Y65.196 E20.44292
G1 X132.697 Y65.249 E20.47297
G1 X133.59 Y65.381 E20.503
G1 X134.468 Y65.592 E20.53303
G1 X135.324 Y65.88 E20.56307
G1 X136.151 Y66.242 E20.5931
G1 X136.943 Y66.677 E20.62315
G1 X137.694 Y67.179 E20.65319
G1 X138.397 Y67.746 E20.68323
G1 X139.047 Y68.373 E20.71327
G1 X139.639 Y69.055 E20.74331
G1 X140.169 Y69.786 E20.77334
G1 X140.631 Y70.562 E20.80338
G1 X141.024 Y71.375 E20.83341
G1 X141.342 Y72.22 E20.86344
G1 X141.585 Y73.09 E20.89348
G1 X141.75 Y73.978 E20.92353
G1 X141.845 Y75.108 E20.96124
G1 X141.854 Y75.428 E20.97189
G1 X141.858 Y75.715 E20.98144
G1 X141.857 Y99.823 E21.78327
G1 X141.847 Y100.524 E21.80659
G1 X141.794 Y101.426 E21.83664
G1 X141.621 Y102.518 E21.87341
G1 X141.395 Y103.568 E21.90914
G1 X141.217 Y104.339 E21.93546
G1 X140.723 Y106.803 E22.01904
G1 X140.288 Y109.332 E22.10439
G1 X139.934 Y111.819 E22.18794
G1 X139.643 Y114.376 E22.27354
G1 X139.426 Y116.912 E22.35819
G1 X139.284 Y119.404 E22.44121
G1 X139.209 Y121.996 E22.52746
G1 X139.2 Y123.335 E22.57199
G1 X139.199 Y129.918 E22.79095
G1 X139.188 Y130.645 E22.81513
G1 X139.134 Y131.547 E22.84518
G1 X139.001 Y132.44 E22.87521
G1 X138.789 Y133.318 E22.90525
G1 X138.501 Y134.174 E22.93529
G1 X138.138 Y135.001 E22.96533
G1 X137.703 Y135.792 E22.99536
G1 X137.2 Y136.542 E23.02539
G1 X136.633 Y137.245 E23.05543
G1 X136.005 Y137.895 E23.08549
G1 X135.323 Y138.486 E23.11551
G1 X134.591 Y139.015 E23.14555
G1 X133.815 Y139.477 E23.17558
G1 X133.001 Y139.869 E23.20563
G1 X132.156 Y140.187 E23.23566
G1 X131.286 Y140.429 E23.2657
G1 X130.398 Y140.593 E23.29573
G1 X129.277 Y140.687 E23.33315
G1 X128.958 Y140.696 E23.34376
G1 X128.67 Y140.7 E23.35334
G1 X79.575 Y140.699 E24.98625
G1 X78.877 Y140.69 E25.00946
G1 X77.976 Y140.639 E25.03948
G1 X77.082 Y140.507 E25.06954
G1 X76.204 Y140.298 E25.09956
G1 X75.347 Y140.011 E25.12962
G1 X74.52 Y139.65 E25.15963
G1 X73.727 Y139.217 E25.18968
G1 X72.976 Y138.716 E25.21971
G1 X72.272 Y138.15 E25.24975
G1 X71.621 Y137.524 E25.27979
G1 X71.028 Y136.843 E25.30982
G1 X70.498 Y136.112 E25.33985
G1 X70.034 Y135.337 E25.3699
G1 X69.64 Y134.524 E25.39995
G1 X69.32 Y133.68 E25.42997
G1 X69.076 Y132.81 E25.46002
G1 X68.91 Y131.922 E25.49007
G1 X68.813 Y130.767 E25.52862
G1 X68.804 Y130.434 E25.5397
G1 X68.8 Y130.158 E25.54888
G1 X68.801 Y106.048 E26.35078
G1 X68.812 Y105.342 E26.37426
G1 X68.866 Y104.441 E26.40428
G1 X69.038 Y103.362 E26.44063
G1 X69.263 Y102.317 E26.47618
G1 X69.441 Y101.546 E26.5025
G1 X69.936 Y99.082 E26.58609
G1 X70.37 Y96.554 E26.6714
G1 X70.724 Y94.066 E26.75498
G1 X71.015 Y91.509 E26.84058
G1 X71.232 Y88.973 E26.92523
G1 X71.374 Y86.481 E27.00825
G1 X71.449 Y83.888 E27.09453
G1 X71.458 Y82.55 E27.13904
G1 X71.459 Y75.889 E27.36058
G1 X71.47 Y75.225 E27.38267
G1 X71.525 Y74.324 E27.41269
G1 X71.66 Y73.431 E27.44273
G1 X71.873 Y72.553 E27.47278
G1 X72.162 Y71.698 E27.5028
G1 X72.527 Y70.871 E27.53287
G1 X72.962 Y70.08 E27.56289
G1 X73.467 Y69.331 E27.59294
G1 X74.035 Y68.629 E27.62297
G1 X74.663 Y67.98 E27.65301
G1 F3600 E22.65301
;MESH:?????????????????????.STL
G0 F6000 X82.072 Y74.72
G0 X82.072 Y75.799
G0 X82.458 Y96.865
G0 X84.095 Y95.93
G0 X84.979 Y96.46
G0 X85.419 Y96.826
G0 X85.704 Y97.323
G0 X85.804 Y97.885
G0 X85.704 Y98.448
G0 X85.448 Y98.891
G0 X84.472 Y99.667
;TYPE:WALL-INNER
G1 F3600 E27.65301
G1 F1200 X85.063 Y99.452 E27.67392
G1 X85.131 Y99.394 E27.6769
G1 X85.544 Y99.047 E27.69484
G1 X85.858 Y98.504 E27.7157
G1 X85.967 Y97.885 E27.7366
G1 X85.858 Y97.266 E27.75751
G1 X85.544 Y96.721 E27.77843
G1 X85.062 Y96.318 E27.79933
G1 X84.495 Y96.112 E27.81939
G1 X84.362 Y96.101 E27.82383
G1 X83.841 Y96.103 E27.84116
G1 X83.254 Y96.318 E27.86195
G1 X82.772 Y96.72 E27.88283
G1 X82.643 Y96.943 E27.89139
G1 X82.457 Y97.266 E27.90379
G1 X82.349 Y97.885 E27.92469
G1 X82.457 Y98.502 E27.94552
G1 X82.643 Y98.826 E27.95795
G1 X82.771 Y99.048 E27.96647
G1 X83.184 Y99.395 E27.98441
G1 X83.253 Y99.452 E27.98739
G1 X83.843 Y99.667 E28.00828
G1 X84.472 Y99.667 E28.0292
G0 F6000 X84.401 Y99.267
;TYPE:WALL-OUTER
G1 F1200 X84.86 Y99.1 E28.04544
G1 X85.233 Y98.786 E28.06166
G1 X85.476 Y98.365 E28.07783
G1 X85.561 Y97.885 E28.09404
G1 X85.476 Y97.405 E28.11025
G1 X85.233 Y96.982 E28.12648
G1 X84.859 Y96.67 E28.14268
G1 X84.409 Y96.506 E28.15861
G1 X84.347 Y96.501 E28.16068
G1 X83.913 Y96.503 E28.17511
G1 X83.457 Y96.67 E28.19126
G1 X83.083 Y96.982 E28.20746
G1 X82.839 Y97.405 E28.22371
G1 X82.755 Y97.885 E28.23991
G1 X82.839 Y98.364 E28.25609
G1 X83.082 Y98.787 E28.27231
G1 X83.456 Y99.1 E28.28853
G1 X83.914 Y99.267 E28.30475
G1 X84.401 Y99.267 E28.32095
G0 F6000 X84.477 Y99.7
G0 X85.419 Y98.941
G0 X85.704 Y98.448
G0 X85.804 Y97.885
G0 X85.704 Y97.323
G0 X85.419 Y96.826
G0 X84.369 Y95.93
G0 X82.458 Y96.865
G0 X82.458 Y78.904
G0 X83.598 Y79.431
G0 X84.472 Y79.667
;TYPE:WALL-INNER
G1 F1200 X85.063 Y79.452 E28.34186
G1 X85.544 Y79.047 E28.36278
G1 X85.858 Y78.504 E28.38364
G1 X85.967 Y77.885 E28.40454
G1 X85.858 Y77.266 E28.42545
G1 X85.544 Y76.721 E28.44637
G1 X85.131 Y76.375 E28.46429
G1 X85.062 Y76.318 E28.46726
G1 X84.495 Y76.112 E28.48733
G1 X84.362 Y76.101 E28.49177
G1 X83.841 Y76.103 E28.5091
G1 X83.254 Y76.318 E28.52989
G1 X83.185 Y76.376 E28.53289
G1 X82.772 Y76.72 E28.55076
G1 X82.643 Y76.943 E28.55933
G1 X82.457 Y77.266 E28.57173
G1 X82.349 Y77.885 E28.59263
G1 X82.457 Y78.502 E28.61346
G1 X82.643 Y78.826 E28.62589
G1 X82.771 Y79.048 E28.63441
G1 X83.253 Y79.452 E28.65533
G1 X83.843 Y79.667 E28.67622
G1 X84.472 Y79.667 E28.69714
G0 F6000 X84.401 Y79.267
;TYPE:WALL-OUTER
G1 F1200 X84.86 Y79.1 E28.71338
G1 X85.233 Y78.786 E28.7296
G1 X85.476 Y78.365 E28.74577
G1 X85.561 Y77.885 E28.76198
G1 X85.476 Y77.405 E28.77819
G1 X85.233 Y76.982 E28.79442
G1 X84.859 Y76.67 E28.81062
G1 X84.409 Y76.506 E28.82655
G1 X84.347 Y76.501 E28.82862
G1 X83.913 Y76.503 E28.84305
G1 X83.457 Y76.67 E28.8592
G1 X83.083 Y76.982 E28.8754
G1 X82.839 Y77.405 E28.89164
G1 X82.755 Y77.885 E28.90785
G1 X82.839 Y78.364 E28.92403
G1 X83.082 Y78.787 E28.94025
G1 X83.456 Y79.1 E28.95647
G1 X83.914 Y79.267 E28.97269
G1 X84.401 Y79.267 E28.98888
G0 F6000 X84.477 Y79.7
G1 F3600 E23.98888
G0 F6000 X86.021 Y78.564
G0 X85.677 Y76.609
G0 X85.205 Y76.182
G0 X128.111 Y76.182
G0 X127.176 Y77.885
G0 X127.794 Y78.893
G0 X128.843 Y79.667
;TYPE:WALL-INNER
G1 F3600 E28.98888
G1 F1200 X129.472 Y79.667 E29.0098
G1 X130.063 Y79.452 E29.03072
G1 X130.544 Y79.047 E29.05164
G1 X130.673 Y78.824 E29.0602
G1 X130.858 Y78.504 E29.0725
G1 X130.967 Y77.885 E29.0934
G1 X130.858 Y77.266 E29.11431
G1 X130.672 Y76.944 E29.12668
G1 X130.544 Y76.721 E29.13523
G1 X130.131 Y76.375 E29.15315
G1 X130.062 Y76.318 E29.15612
G1 X129.495 Y76.112 E29.17619
G1 X129.362 Y76.101 E29.18063
G1 X128.841 Y76.103 E29.19796
G1 X128.254 Y76.318 E29.21875
G1 X128.185 Y76.376 E29.22175
G1 X127.772 Y76.72 E29.23962
G1 X127.457 Y77.266 E29.26059
G1 X127.349 Y77.885 E29.28149
G1 X127.457 Y78.502 E29.30232
G1 X127.771 Y79.048 E29.32327
G1 X128.253 Y79.452 E29.34419
G1 X128.843 Y79.667 E29.36507
G0 F6000 X128.914 Y79.267
;TYPE:WALL-OUTER
G1 F1200 X129.401 Y79.267 E29.38127
G1 X129.86 Y79.1 E29.39752
G1 X130.233 Y78.786 E29.41373
G1 X130.476 Y78.365 E29.4299
G1 X130.561 Y77.885 E29.44611
G1 X130.476 Y77.405 E29.46233
G1 X130.233 Y76.982 E29.47855
G1 X129.859 Y76.67 E29.49475
G1 X129.409 Y76.506 E29.51068
G1 X129.347 Y76.501 E29.51275
G1 X128.913 Y76.503 E29.52719
G1 X128.457 Y76.67 E29.54334
G1 X128.083 Y76.982 E29.55954
G1 X127.839 Y77.405 E29.57578
G1 X127.755 Y77.885 E29.59199
G1 X127.839 Y78.364 E29.60816
G1 X128.082 Y78.787 E29.62439
G1 X128.456 Y79.1 E29.64061
G1 X128.914 Y79.267 E29.65682
G0 F6000 X128.838 Y79.7
G0 X130.677 Y79.159
G0 X130.858 Y78.902
G0 X130.858 Y96.867
G0 X128.842 Y95.932
G0 X127.898 Y96.826
G0 X127.611 Y97.323
G0 X127.512 Y97.885
G0 X127.611 Y98.446
G0 X127.867 Y98.893
G0 X128.843 Y99.667
;TYPE:WALL-INNER
G1 F1200 X129.472 Y99.667 E29.67774
G1 X130.063 Y99.452 E29.69866
G1 X130.131 Y99.394 E29.70163
G1 X130.544 Y99.047 E29.71957
G1 X130.673 Y98.824 E29.72814
G1 X130.858 Y98.504 E29.74044
G1 X130.967 Y97.885 E29.76134
G1 X130.858 Y97.266 E29.78225
G1 X130.672 Y96.944 E29.79461
G1 X130.544 Y96.721 E29.80317
G1 X130.062 Y96.318 E29.82406
